X: 1
T:the Oldham Rowling Hornpipe
M:3/2
L:1/8
K:D
DEFG AFDF  EDEF | D2 EF GFED C2 C2 |\
DEFG AFDF  EDEF | D2 d2 AFGE D4    ||
DEFG AB c2 BcdB | c2 BA GFED C2 C2 |\
DEFG ABcA  agfe | d2 d2 AFGE D4    ||
DEFG efge  fgaf | d2 d2 efge c2 c2 |\
efge afdf  gece | d2 d2 AFGE D4    |]
